Obsidian-SemiLight/actions/24s/snap-nodes-smooth.svg

<svg viewBox="0 0 24 24" xmlns="http://www.w3.org/2000/svg"><path d="m10 5.2949219a7 7 0 0 0 -4.7011719 4.7050781h1.0527344a6 6 0 0 1 3.6484375-3.6503906zm4 .0039062v1.0527344a6 6 0 0 1 3.650391 3.6484375h1.054687a7 7 0 0 0 -4.705078-4.7011719zm-8.7050781 8.7011719a7 7 0 0 0 4.7050781 4.701172v-1.052734a6 6 0 0 1 -3.6503906-3.648438zm12.3535161 0a6 6 0 0 1 -3.648438 3.650391v1.054687a7 7 0 0 0 4.701172-4.705078z" fill="#4d4d4d"/><path d="m10 3v4h4v-4zm1 1h2v2h-2zm-8 6v4h4v-4zm14 0v4h4v-4zm-13 1h2v2h-2zm14 0h2v2h-2zm-8 6v4h4v-4zm1 1h2v2h-2z" fill="#3daee9"/></svg>

<svg xmlns="http://www.w3.org/2000/svg" viewBox="0 0 24 24">
  <defs id="defs3051">
    <style type="text/css" id="current-color-scheme">
      .ColorScheme-Text {
        color:#4d4d4d;
      }
      .ColorScheme-Highlight {
        color:#3daee9;
      }
      </style>
  </defs>
 <path 
     style="fill:currentColor;fill-opacity:1;stroke:none" 
     d="M 10 5.2949219 A 7 7 0 0 0 5.2988281 10 L 6.3515625 10 A 6 6 0 0 1 10 6.3496094 L 10 5.2949219 z M 14 5.2988281 L 14 6.3515625 A 6 6 0 0 1 17.650391 10 L 18.705078 10 A 7 7 0 0 0 14 5.2988281 z M 5.2949219 14 A 7 7 0 0 0 10 18.701172 L 10 17.648438 A 6 6 0 0 1 6.3496094 14 L 5.2949219 14 z M 17.648438 14 A 6 6 0 0 1 14 17.650391 L 14 18.705078 A 7 7 0 0 0 18.701172 14 L 17.648438 14 z "
     class="ColorScheme-Text"
     />
 <path 
     style="fill:currentColor;fill-opacity:1;stroke:none" 
     d="M 10 3 L 10 7 L 14 7 L 14 3 L 10 3 z M 11 4 L 13 4 L 13 6 L 11 6 L 11 4 z M 3 10 L 3 14 L 7 14 L 7 10 L 3 10 z M 17 10 L 17 14 L 21 14 L 21 10 L 17 10 z M 4 11 L 6 11 L 6 13 L 4 13 L 4 11 z M 18 11 L 20 11 L 20 13 L 18 13 L 18 11 z M 10 17 L 10 21 L 14 21 L 14 17 L 10 17 z M 11 18 L 13 18 L 13 20 L 11 20 L 11 18 z "
     class="ColorScheme-Highlight"
     />
</svg>
